svgs/light/ban-smoking.svg

<svg xmlns="http://www.w3.org/2000/svg" viewBox="0 0 512 512"><!-- Font Awesome Pro 6.0.0-alpha2 by @fontawesome - https://fontawesome.com License - https://fontawesome.com/license (Commercial License) --><path d="M256 0C114.844 0 0 114.844 0 256S114.844 512 256 512S512 397.156 512 256S397.156 0 256 0ZM256 480C132.5 480 32 379.5 32 256C32 199.998 52.811 148.857 86.914 109.539L201.375 224H128C110.344 224 96 238.344 96 256V288C96 305.656 110.344 320 128 320H297.375L402.461 425.086C363.143 459.189 312.002 480 256 480ZM233.375 256L265.375 288H128V256H233.375ZM425.086 402.461L341.514 318.889C347.609 316.631 352 310.887 352 304C352 295.156 344.844 288 336 288H310.625L278.625 256H336C344.844 256 352 248.844 352 240S344.844 224 336 224H246.625L109.539 86.914C148.857 52.811 199.998 32 256 32C379.5 32 480 132.5 480 256C480 312.002 459.189 363.143 425.086 402.461ZM400 224C391.156 224 384 231.156 384 240V304C384 312.844 391.156 320 400 320S416 312.844 416 304V240C416 231.156 408.844 224 400 224ZM398.865 193.125C407.709 193.125 414.865 185.969 414.865 177.125C414.865 141.844 383.428 113.125 344.803 113.125H310.053C298.646 113.125 287.896 108.844 280.615 101.344C274.869 95.441 271.809 88.01 272.023 80.451L272.115 77.656L271.529 77.637C270.355 70.143 264.287 64.223 256.459 64H256.021C247.365 64 240.271 70.875 240.021 79.562C239.584 95.875 245.865 111.531 257.678 123.656C270.959 137.312 290.053 145.125 310.053 145.125H344.803C365.803 145.125 382.865 159.469 382.865 177.125C382.865 185.969 390.021 193.125 398.865 193.125Z"/></svg>

<svg xmlns="http://www.w3.org/2000/svg" viewBox="0 0 512 512"><!--! Font Awesome Pro 6.3.0 by @fontawesome - https://fontawesome.com License - https://fontawesome.com/license (Commercial License) Copyright 2023 Fonticons, Inc. --><path d="M256 0C114.8 0 0 114.8 0 256s114.8 256 256 256s256-114.8 256-256S397.2 0 256 0zM256 480c-123.5 0-224-100.5-224-224c0-56 20.81-107.1 54.91-146.5L201.4 224H128C110.3 224 96 238.3 96 256v32c0 17.66 14.34 32 32 32h169.4l105.1 105.1C363.1 459.2 312 480 256 480zM233.4 256l32 32H128V256H233.4zM425.1 402.5L341.5 318.9C347.6 316.6 352 310.9 352 304C352 295.2 344.8 288 336 288h-25.38l-32-32H336C344.8 256 352 248.8 352 240S344.8 224 336 224H246.6L109.5 86.91C148.9 52.81 199.1 32 256 32c123.5 0 224 100.5 224 224C480 312 459.2 363.1 425.1 402.5zM400 224C391.2 224 384 231.2 384 240v64c0 8.844 7.156 16 16 16S416 312.8 416 304v-64C416 231.2 408.8 224 400 224zM398.9 193.1c8.844 0 16-7.156 16-16c0-35.28-31.44-64-70.06-64h-34.75c-11.41 0-22.16-4.281-29.44-11.78c-5.746-5.902-8.807-13.33-8.592-20.89l.0918-2.795l-.5859-.0195C270.4 70.14 264.3 64.22 256.5 64h-.4518C247.4 64 240.3 70.88 240 79.56c-.4375 16.31 5.844 31.97 17.66 44.09c13.28 13.66 32.38 21.47 52.38 21.47h34.75c21 0 38.06 14.34 38.06 32C382.9 185.1 390 193.1 398.9 193.1z"/></svg>
